src/22/panel/y-ppa-indicator.svg

<svg xmlns="http://www.w3.org/2000/svg" width="22" height="22" version="1.1">
 <defs>
  <style id="current-color-scheme" type="text/css">
   .ColorScheme-Text { color:#dfdfdf; } .ColorScheme-Highlight { color:#4285f4; }
  </style>
 </defs>
 <g>
  <path style="fill:currentColor" class="ColorScheme-Text" d="M 6.53,3 C 4.5671598,3 3,4.5691747 3,6.5320149 L 3,15.469287 C 3,17.432128 4.5671598,19 6.53,19 l 8.94,0 C 17.43284,19 19,17.432128 19,15.469287 L 19,6.5320149 C 19,4.5691747 17.43284,3 15.47,3 Z M 5.001988,5.0011395 10,5 10,5.4701013 c -0.1289895,0.011999 -0.2094018,0 -0.3733884,0 -0.5399561,0.035997 -0.9379237,0.1039916 -0.9379237,0.405967 0,0.2659783 0.081993,0.5149581 0.2809771,0.7809364 L 11.47,10.53 14.125246,6.6260072 C 14.301231,6.3480299 14.375225,6.0960504 14.375225,5.9380632 14.375225,5.708082 14.18824,5.5549931 14.000256,5.47 l -0.999919,0 0,-0.4698604 3.999675,0 0,0.4698604 C 16.554048,5.505997 16.173079,5.535096 15.844106,5.8130734 15.527131,6.0790518 15.091167,6.6090086 14.56321,7.4069437 l -2.562792,4.0626693 0,4.530631 c 0.210983,0.192984 1.212902,0.518958 1.999838,0.530957 l 0,0.468962 L 8,17.000163 8,16.53 c 0.798935,-0.036 1.8120154,-0.336772 2,-0.529756 L 10,11.44 7.8755,8.1878801 C 6.9595745,6.8829863 6.356476,6.1030498 6.0625,5.8130734 5.7685239,5.523097 5.4619506,5.47 4.9999882,5.47 l 0,-0.4698604 z"/>
 </g>
</svg>

<svg xmlns="http://www.w3.org/2000/svg" width="22" height="22"><defs><style id="current-color-scheme" type="text/css">.ColorScheme-Text{color:#dfdfdf;}.ColorScheme-Highlight{color:#5294e2;}</style></defs><defs><style id="current-color-scheme" type="text/css"></style></defs><path d="M6.53 3A3.515 3.515 0 0 0 3 6.532v8.937A3.514 3.514 0 0 0 6.53 19h8.94A3.514 3.514 0 0 0 19 15.47V6.531A3.515 3.515 0 0 0 15.47 3zM5.002 5.001L10 5v.47c-.129.012-.21 0-.373 0-.54.036-.938.104-.938.406 0 .266.082.515.28.781l2.501 3.873 2.655-3.904c.176-.278.25-.53.25-.688 0-.23-.187-.383-.375-.468h-1V5h4v.47c-.446.036-.827.065-1.156.343-.317.266-.753.796-1.28 1.594L12 11.47V16c.211.193 1.213.52 2 .531v.47H8v-.471c.799-.036 1.812-.337 2-.53v-4.56L7.875 8.188C6.96 6.883 6.356 6.103 6.063 5.813c-.293-.29-.6-.343-1.062-.343V5z" fill="currentColor" class="ColorScheme-Text"/></svg>
